X: 25436
T: Marcha De L.lamo
R: march
M: 
K: Fmajor
M:6/8
|:F2G AGA|B2A G3|E2F GFG|A2G A2F|
F2G AGA|B2A G3|E2F GAG|C3 F3:|
|:GFG AGF|GFG AGF|GFG AGF|ABA G3|
E2F GAG|C2A- A2G|FEF GAG|GFE F3:|

